X:395
T: Dennis Cronin's
S: B.Breathnach:"Ceol Rince na hEireann" IV/6 (gan ainm)
Z: B.Black
L: 1/8
M: 6/8
R: jig
K: D
EF|: A3 cBc|ABA d2B|A3 cBc|e2e fdB|
A3 cBc|ABA d2B|e2f g2e|age dBA :|
aed cBc|ABA d2B|aed cBc|e2e fdB|
aed cBc|ABA d2B|e2f g2e|age dBA :|
